!!!OTL: 487a. Des Goldschmieds Toechterlein.
!!!ARE: Europa, Mitteleuropa, Deutschland
!!!SCT: E0487
!!!TXL: @@DE
!!!YEM: Copyright 1995, estate of Helmut Schaffrath.
**kern	**text
*ICvox	*
*M4/4	*
*met(c|)	*
*k[]	*
*a:	*
!LO:TX:a:t=Mel. mit Lautenſchrift in P. Fabricius Liederb. um 1603, Nr. 140 und 167.	!
{4e	Bi-
=1	=1
4a	-ſtu
4b	des
4cc	Goldſchmieds
4a	.
=2	=2
4g#i	Töch-
4b/	-ter-
4a}	-lein,
{4cc	bin
=3	=3
4b/	ich
4a	des
4g	Bau-
4f#i	-ren
=4	=4
2e	Sohn,
2d#	ja
=5	=5
2.e}	Sohn
{4e	Bi-
=6	=6
4a	-ſtu
4b	des
4cc	Goldſchmieds
4a	.
=7	=7
4g#i	Töch-
4b/	-ter-
4a}	-lein,
{4cc	bin
=8	=8
4b/	ich
4a	des
4g	Bau-
4f#i	-ren
=9	=9
2e	Sohn,
2d#	ja
=10	=10
2.e}	Sohn
{4b	ſo
=11	=11
4cc	ʒeug
4b	dein
4cc	be-
4a	-ſte
=12	=12
4g	Klei-
4f#	-der
2e}	an
=13	=13
{2cc	und
2dd	ſprich
=14	=14
[2ee	du
4ee]	wilt
8ddL	ʒum
8ccJ	.
=15	=15
4b/	Tan-
4a	-ʒe
4g#}	gahn,
{4a	und
=16	=16
4b	ʒeuch
4a	mit
4a	mir
4g#	da-
=17	=17
2.a}	-von,
{4a	und
=18	=18
4e	ʒeuch
4e	mit
4f#	mir
4g#	da-
=19	=19
2.a}	-von.
==	==
!!!Ag: Liebes - Lied
!!!ONB: ESAC (Essen Associative Code) Database: ERK1
!!!AMT: simple quadruple
!!!AIN: vox
!!!EED: Helmut Schaffrath
!!!EEV: 1.0
!!!RDF**kern: i = editorial accidental
!!!GTL: Liebeslieder [Alte (aus dem 13. bis 17. Jahrh.) mit ihrem jungen Nachwuchs]
!!!URL-scan: https://rosdok.uni-rostock.de/mcrviewer/recordIdentifier/rosdok_ppn745177662/iview2/phys_0310.iview2?x=-445.812200956939&y=2199.6294704081956&scale=0.47662485746864275&rotation=0&layout=singlePageLayout
!!!ENC: Anna Maria Matuszewska
!!!EEV: 2024/10/12
*-	*-
